X:1
T:Equinox
C:John Coltrane
Z:All Rights Reserved
L:1/8
M:4/4
K:Cmin
V:1 treble nm=" " snm=" "
V:1
 G |:"Cm7" e3 c- c4- | c6- cG | ec- c4- cG | cez2z2ze |"Fm7" f3 c- c4- | c7 f |"Cm7" e3 c- c3 G | %8
 ce z2 z4 |"Ab7"z!^!d z2 d3 c |"G7" d3 c ec e2 |"Cm7" c8- | c7 G |] %13

